actions/16/node-break.svg

<svg xmlns="http://www.w3.org/2000/svg" style="fill-rule:evenodd;clip-rule:evenodd;stroke-linejoin:round;stroke-miterlimit:2" width="100%" height="100%" viewBox="0 0 16 16" xml:space="preserve">
 <defs>
  <style id="current-color-scheme" type="text/css">
   .ColorScheme-Text { color:#dfdfdf; } .ColorScheme-Highlight { color:#4285f4; } .ColorScheme-NeutralText { color:#ff9800; } .ColorScheme-PositiveText { color:#4caf50; } .ColorScheme-NegativeText { color:#f44336; }
  </style>
 </defs>
 <path style="fill:currentColor;" class="ColorScheme-Text" d="M7,5l0,2l-2,0l2.5,3l2.5,-3l-2,0l0,-2l-1,0Z"/>
 <path style="fill:currentColor;" class="ColorScheme-Text" d="M6.019,12.186c0,-0.701 -0.57,-1.271 -1.271,-1.271l-2.543,0c-0.701,0 -1.271,0.57 -1.271,1.271l0,2.543c0,0.701 0.57,1.271 1.271,1.271l2.543,0c0.701,0 1.271,-0.57 1.271,-1.271l0,-2.543Zm7.985,0c0,-0.701 -0.57,-1.271 -1.271,-1.271l-2.543,0c-0.702,0 -1.271,0.57 -1.271,1.271l0,2.543c0,0.701 0.569,1.271 1.271,1.271l2.543,0c0.701,0 1.271,-0.57 1.271,-1.271l0,-2.543Zm-8.985,0l0,2.543c0,0.149 -0.122,0.271 -0.271,0.271l-2.543,0c-0.15,0 -0.271,-0.122 -0.271,-0.271l0,-2.543c0,-0.15 0.121,-0.271 0.271,-0.271l2.543,0c0.149,0 0.271,0.121 0.271,0.271Zm7.985,0l0,2.543c0,0.149 -0.122,0.271 -0.271,0.271l-2.543,0c-0.15,0 -0.271,-0.122 -0.271,-0.271l0,-2.543c0,-0.15 0.121,-0.271 0.271,-0.271l2.543,0c0.149,0 0.271,0.121 0.271,0.271Zm-6.985,-10.915c0,-0.701 -0.57,-1.271 -1.271,-1.271l-2.543,0c-0.701,0 -1.271,0.57 -1.271,1.271l0,2.543c0,0.701 0.57,1.271 1.271,1.271l2.543,0c0.701,0 1.271,-0.57 1.271,-1.271l0,-2.543Zm7.985,0c0,-0.701 -0.57,-1.271 -1.271,-1.271l-2.543,0c-0.702,0 -1.271,0.57 -1.271,1.271l0,2.543c0,0.701 0.569,1.271 1.271,1.271l2.543,0c0.701,0 1.271,-0.57 1.271,-1.271l0,-2.543Zm-8.985,0l0,2.543c0,0.15 -0.122,0.271 -0.271,0.271l-2.543,0c-0.15,0 -0.271,-0.121 -0.271,-0.271l0,-2.543c0,-0.149 0.121,-0.271 0.271,-0.271l2.543,0c0.149,0 0.271,0.122 0.271,0.271Zm7.985,0l0,2.543c0,0.15 -0.122,0.271 -0.271,0.271l-2.543,0c-0.15,0 -0.271,-0.121 -0.271,-0.271l0,-2.543c0,-0.149 0.121,-0.271 0.271,-0.271l2.543,0c0.149,0 0.271,0.122 0.271,0.271Z"/>
 <path style="fill:currentColor;fill-opacity:0.3" class="ColorScheme-Text" d="M1.356,12.833l0,1.249l-0.639,0c-0.344,0 -0.624,-0.28 -0.624,-0.624c0,-0.345 0.28,-0.625 0.624,-0.625l0.639,0Zm12.197,0l0.808,0c0.345,0 0.624,0.28 0.624,0.625c-0,0.344 -0.279,0.624 -0.624,0.624l-0.808,0l-0,-1.249Zm-12.197,-10.964l0,1.249l-0.639,0c-0.344,0 -0.624,-0.28 -0.624,-0.624c0,-0.345 0.28,-0.625 0.624,-0.625l0.639,0Zm8.013,1.249l-3.829,0l0,-1.249l3.829,0l0,1.249Zm4.184,-1.249l0.808,0c0.345,0 0.624,0.28 0.624,0.625c0,0.344 -0.279,0.624 -0.624,0.624l-0.808,0l0,-1.249Z"/>
</svg>

<svg xmlns="http://www.w3.org/2000/svg" style="fill-rule:evenodd;clip-rule:evenodd;stroke-linejoin:round;stroke-miterlimit:2" viewBox="0 0 16 16" xml:space="preserve">
    <defs>
        <style id="current-color-scheme" type="text/css">
            .ColorScheme-Text{color:#dfdfdf}
        </style>
    </defs>
    <path style="fill:currentColor" class="ColorScheme-Text" d="M7 5v2H5l2.5 3L10 7H8V5H7Zm-.981 7.186c0-.701-.57-1.271-1.271-1.271H2.205c-.701 0-1.271.57-1.271 1.271v2.543c0 .701.57 1.271 1.271 1.271h2.543c.701 0 1.271-.57 1.271-1.271v-2.543Zm7.985 0c0-.701-.57-1.271-1.271-1.271H10.19c-.702 0-1.271.57-1.271 1.271v2.543c0 .701.569 1.271 1.271 1.271h2.543c.701 0 1.271-.57 1.271-1.271v-2.543Zm-8.985 0v2.543a.272.272 0 0 1-.271.271H2.205a.271.271 0 0 1-.271-.271v-2.543a.27.27 0 0 1 .271-.271h2.543c.149 0 .271.121.271.271Zm7.985 0v2.543a.272.272 0 0 1-.271.271H10.19a.271.271 0 0 1-.271-.271v-2.543a.27.27 0 0 1 .271-.271h2.543c.149 0 .271.121.271.271ZM6.019 1.271C6.019.57 5.449 0 4.748 0H2.205C1.504 0 .934.57.934 1.271v2.543c0 .701.57 1.271 1.271 1.271h2.543c.701 0 1.271-.57 1.271-1.271V1.271Zm7.985 0C14.004.57 13.434 0 12.733 0H10.19c-.702 0-1.271.57-1.271 1.271v2.543c0 .701.569 1.271 1.271 1.271h2.543c.701 0 1.271-.57 1.271-1.271V1.271Zm-8.985 0v2.543c0 .15-.122.271-.271.271H2.205a.27.27 0 0 1-.271-.271V1.271c0-.149.121-.271.271-.271h2.543c.149 0 .271.122.271.271Zm7.985 0v2.543c0 .15-.122.271-.271.271H10.19a.27.27 0 0 1-.271-.271V1.271c0-.149.121-.271.271-.271h2.543c.149 0 .271.122.271.271Z"/>
    <path style="fill:currentColor;fill-opacity:.3" class="ColorScheme-Text" d="M1.356 12.833v1.249H.717a.625.625 0 0 1 0-1.249h.639Zm12.197 0h.808a.624.624 0 0 1 0 1.249h-.808v-1.249ZM1.356 1.869v1.249H.717a.625.625 0 0 1 0-1.249h.639Zm8.013 1.249H5.54V1.869h3.829v1.249Zm4.184-1.249h.808a.624.624 0 0 1 0 1.249h-.808V1.869Z"/>
</svg>
